packages/assets/static/images/icons/file-image.svg

<svg width="24" height="24" viewBox="0 0 24 24" xmlns="http://www.w3.org/2000/svg">
<path d="M11.4995 13.8342C11.4311 13.7314 11.3383 13.647 11.2293 13.5886C11.1204 13.5303 10.9987 13.4998 10.8752 13.4998C10.7516 13.4998 10.6299 13.5303 10.521 13.5886C10.4121 13.647 10.3193 13.7314 10.2508 13.8342L8.29611 16.7677L7.38111 15.3446C7.3132 15.2389 7.21984 15.152 7.1096 15.0918C6.99936 15.0316 6.87577 15 6.75017 15C6.62457 15 6.50097 15.0316 6.39073 15.0918C6.2805 15.152 6.18714 15.2389 6.11923 15.3446L2.74423 20.5946C2.6713 20.7079 2.63024 20.8387 2.62537 20.9734C2.6205 21.108 2.652 21.2415 2.71656 21.3598C2.78112 21.4781 2.87635 21.5768 2.99225 21.6455C3.10814 21.7143 3.24042 21.7505 3.37517 21.7505H15.3752C15.511 21.7506 15.6443 21.7138 15.7608 21.644C15.8773 21.5743 15.9728 21.4742 16.0369 21.3545C16.101 21.2347 16.1314 21.0998 16.1248 20.9642C16.1182 20.8285 16.0749 20.6972 15.9995 20.5842L11.4995 13.8342ZM4.74861 20.2505L6.75017 17.1371L7.65298 18.5433C7.72032 18.6481 7.81271 18.7345 7.9218 18.7947C8.0309 18.8549 8.15326 18.8869 8.27785 18.8879C8.40243 18.889 8.52531 18.8589 8.63538 18.8006C8.74545 18.7422 8.83925 18.6573 8.90829 18.5536L10.877 15.6033L13.9736 20.2505H4.74861ZM21.1549 7.71986L15.9049 2.46986C15.7643 2.32948 15.5738 2.25058 15.3752 2.25049H6.37517C5.97734 2.25049 5.59581 2.40852 5.31451 2.68983C5.0332 2.97113 4.87517 3.35266 4.87517 3.75049V12.0005C4.87517 12.1994 4.95419 12.3902 5.09484 12.5308C5.23549 12.6715 5.42626 12.7505 5.62517 12.7505C5.82408 12.7505 6.01485 12.6715 6.1555 12.5308C6.29615 12.3902 6.37517 12.1994 6.37517 12.0005V3.75049H14.6252V8.25049C14.6252 8.4494 14.7042 8.64017 14.8448 8.78082C14.9855 8.92147 15.1763 9.00049 15.3752 9.00049H19.8752V20.2505H19.1252C18.9263 20.2505 18.7355 20.3295 18.5948 20.4702C18.4542 20.6108 18.3752 20.8016 18.3752 21.0005C18.3752 21.1994 18.4542 21.3902 18.5948 21.5308C18.7355 21.6715 18.9263 21.7505 19.1252 21.7505H19.8752C20.273 21.7505 20.6545 21.5925 20.9358 21.3111C21.2171 21.0298 21.3752 20.6483 21.3752 20.2505V8.25049C21.3752 8.15197 21.3559 8.0544 21.3183 7.96335C21.2806 7.8723 21.2254 7.78957 21.1558 7.71986H21.1549ZM16.1252 4.8108L18.8149 7.50049H16.1252V4.8108Z"/>
</svg>

<svg viewBox="0 0 24 24" xmlns="http://www.w3.org/2000/svg" aria-hidden="true" fill="currentColor"><path d="M11.5 13.834a.75.75 0 0 0-1.25 0l-1.954 2.934-.915-1.423a.75.75 0 0 0-1.262 0l-3.375 5.25a.75.75 0 0 0 .631 1.156h12A.75.75 0 0 0 16 20.583zM4.748 20.25l2.001-3.113.903 1.406a.75.75 0 0 0 1.255.01l1.969-2.95 3.097 4.647zM21.155 7.72l-5.25-5.25a.75.75 0 0 0-.53-.22h-9a1.5 1.5 0 0 0-1.5 1.5V12a.75.75 0 1 0 1.5 0V3.75h8.25v4.5a.75.75 0 0 0 .75.75h4.5v11.25h-.75a.75.75 0 1 0 0 1.5h.75a1.5 1.5 0 0 0 1.5-1.5v-12a.75.75 0 0 0-.22-.53m-5.03-2.91 2.69 2.69h-2.69z"/></svg>
